X:1
T:RVW2/1/133 Blacksmith Courted Me
T:RVW2/1/133 Blacksmith Courted Me
T:Mrs. Powell, Herefordshire, July 1909 [2 of 13]
T:Transcribed by Simon Furey and Lewis Jones
C:Transcribed by Simon Furey and Lewis Jones
L:1/8
Q:1/4=100
M:4/4
K:C
V:1 treble 
V:1
"^(Editorial suggestion)" A>B | c2 c2 dc d2 | A6 G2 | A2 D2 C2 D2- | D4 A3 B | c2 c2 dc d2 | %6
 A6 G2 | A2 D2 C2 D2- | D4 A3 B | c2 c2 d2 d2 | A6 G2 | F2 D2 F2 G2- |[M:2/4] G2 FG | %13
[M:4/4] A3 B c2 d2 | A6 E2 | F2 G2 E2 D2 | z6 |] %17

